packages/foundations/assets/icons/functional/images/file/paper_clip_24.svg

<svg width="24" height="24" viewBox="0 0 24 24" fill="none" xmlns="http://www.w3.org/2000/svg">
<g clip-path="url(#clip0_185_997)">
<path fill-rule="evenodd" clip-rule="evenodd" d="M18.5465 4.04817C19.5784 5.09067 19.6125 6.74743 18.6518 7.83056L10.5589 15.9306C10.1684 16.3211 9.53521 16.3211 9.14469 15.9306C8.78206 15.568 8.75616 14.9961 9.06698 14.6036L17.1223 6.53871C17.4212 6.23983 17.4225 5.75563 17.1251 5.45524C16.8579 5.1853 16.4364 5.16078 16.1412 5.38311L7.0244 14.4895C6.04636 15.4675 6.04435 17.0526 7.01989 18.0331C7.95145 18.9694 9.44234 19.0106 10.423 18.1539L18.0034 10.5816C18.3939 10.1911 19.0271 10.1911 19.4176 10.5816C19.7802 10.9442 19.8061 11.516 19.4953 11.9086L11.9535 19.4599C10.1951 21.2093 7.35152 21.2021 5.60208 19.4438C3.89898 17.732 3.85373 14.9949 5.46382 13.2286L14.657 4.0285C15.7365 2.95992 17.4778 2.96872 18.5465 4.04817Z" fill="#1A1C1F"/>
</g>
<defs>
<clipPath id="clip0_185_997">
<rect width="24" height="24" fill="white"/>
</clipPath>
</defs>
</svg>

<svg xmlns="http://www.w3.org/2000/svg" width="24" height="24" fill="none"><g clip-path="url(#a)"><path fill="#1A1C1F" fill-rule="evenodd" d="M18.547 4.048a2.77 2.77 0 0 1 .105 3.783l-8.093 8.1a1 1 0 0 1-1.492-1.327l8.055-8.065a.77.77 0 0 0 .003-1.084.75.75 0 0 0-.984-.072L7.024 14.49a2.51 2.51 0 0 0-.004 3.543 2.49 2.49 0 0 0 3.403.12l7.58-7.571a1 1 0 0 1 1.492 1.327l-7.542 7.55a4.49 4.49 0 0 1-6.35-.015 4.51 4.51 0 0 1-.14-6.215l9.194-9.2a2.75 2.75 0 0 1 3.89.02" clip-rule="evenodd"/></g><defs><clipPath id="a"><path fill="#fff" d="M0 0h24v24H0z"/></clipPath></defs></svg>
